X: 129
T: Missa Sine nomine I / Credo
N: Derived from Rue1028c-Missa_Sine_nomine_I-Credo.krn
C: Pierre de la Rue
%%abc-version 2.0
%%abcx-abcm2ps-target-version 5.9.1 (29 Sep 2008)
%%abc-creator hum2abc beta
%%abcx-conversion-date 2019/02/17 08:01:15
%%abc-edited-by Jesse Rodin
%%abc-edited-by Chris Gage 06-10-2013
%%abcx-initial-encoding-date 2013/08/04/
%%humdrum-veritas 2396628550
%%humdrum-veritas-data 50552742
%%linebreak <none>
%%barnumbers 0
L: 1/4
M: 2/1
Q: 1/2=120
%%staves [1 2 3 4]
V: 1 clef=treble
V: 2 clef=treble-8
V: 3 clef=treble-8
V: 4 clef=bass
K: F
[V:1] z8 | 
[V:2] G2G2B2B2 | 
[V:3] z8 | 
[V:4] z8 | 
[V:1] G2G2B2B2 | 
[V:2] c2c2d4 | 
[V:3] z8 | 
[V:4] z8 | 
[V:1] c2c2d2d2 | 
[V:2] z2_e2d2B2- | 
[V:3] z8 | 
[V:4] z8 | 
[V:1] B3cd2_e2- | 
[V:2] B2d4g2- | 
[V:3] z8 | 
[V:4] z8 | 
[V:1] eddcd4- | 
[V:2] gf_e_ed4- | 
[V:3] z8 | 
[V:4] z4z2G,,2 | 
[V:1] d4z4 | 
[V:2] d4z4 | 
[V:3] z4z2G2 | 
[V:4] G,,2G,,2B,,2B,,2 | 
[V:1] z8 | 
[V:2] z8 | 
[V:3] G2G2B2B2 | 
[V:4] C,2C,2D,4 | 
[V:1] z8 | 
[V:2] z8 | 
[V:3] c2c2d2Bc | 
[V:4] z2_E,2D,4- | 
[V:1] z8 | 
[V:2] z8 | 
[V:3] d2_e3ddc | 
[V:4] D,2G,3F,_E,E, | 
[V:1] d3dd2d2 | 
[V:2] f3ff2f2 | 
[V:3] d8 | 
[V:4] D,8 | 
[V:1] c2B2A2G2 | 
[V:2] e2d2c2B2 | 
[V:3] z8 | 
[V:4] z8 | 
[V:1] F2F2G2G2 | 
[V:2] A4G4 | 
[V:3] z2d2c2c2 | 
[V:4] z2D,2_E,2E,2 | 
[V:1] F8 | 
[V:2] A8 | 
[V:3] d2d2d2d2 | 
[V:4] D,2D,2D,2D,2 | 
[V:1] z8 | 
[V:2] z8 | 
[V:3] _e3dcBAG | 
[V:4] C,2_E,3D,C,B,, | 
[V:1] z8 | 
[V:2] z8 | 
[V:3] A2G4^F2 | 
[V:4] C,B,,A,,G,,A,,4 | 
[V:1] z8 | 
[V:2] z2g2g2g2 | 
[V:3] G8 | 
[V:4] G,,4z2G,2 | 
[V:1] z2d2d2d2 | 
[V:2] g2g2g3f/e/ | 
[V:3] z4z2d2 | 
[V:4] G,2G,2G,2G,2 | 
[V:1] d2d2d3c/B/ | 
[V:2] d4z4 | 
[V:3] d2d2d2d2 | 
[V:4] G,3F,/E,/D,4- | 
[V:1] A8 | 
[V:2] z4z2d2 | 
[V:3] d3c/B/A4 | 
[V:4] D,8 | 
[V:1] z2A2c3d | 
[V:2] f2f2e4- | 
[V:3] z8 | 
[V:4] z8 | 
[V:1] c2B2A2G2 | 
[V:2] e2d2c3B | 
[V:3] z8 | 
[V:4] z8 | 
[V:1] F2z2z4 | 
[V:2] A2z2z4 | 
[V:3] z2G2AG2^F | 
[V:4] z2B,,2C,B,,A,,2 | 
[V:1] z2G2AGG^F | 
[V:2] z2B2cBAA | 
[V:3] G4z4 | 
[V:4] G,,4z4 | 
[V:1] G2G2A2B2 | 
[V:2] G2d2f2f2 | 
[V:3] z2B2c2d2 | 
[V:4] z2G,2F,2D,2 | 
[V:1] c2cBAGA2- | 
[V:2] g3fedf2- | 
[V:3] _e3dcBc2- | 
[V:4] C,4C,2F,2- | 
[V:1] A2G4^F2 | 
[V:2] fedcd4 | 
[V:3] cBAGA4 | 
[V:4] F,G,E,2D,4 | 
[V:1] G8 | 
[V:2] d8 | 
[V:3] G8 | 
[V:4] G,,4G,,2G,,2 | 
[V:1] z8 | 
[V:2] z8 | 
[V:3] z4G2G2 | 
[V:4] B,,2B,,2C,4 | 
[V:1] z4G2G2 | 
[V:2] z8 | 
[V:3] B2B2c4 | 
[V:4] D,4z4 | 
[V:1] B2B2c4 | 
[V:2] z2d2_e4 | 
[V:3] d4z4 | 
[V:4] z8 | 
[V:1] d4z2G2 | 
[V:2] d2G2B2B2 | 
[V:3] z8 | 
[V:4] z8 | 
[V:1] B2B2c2c2 | 
[V:2] d2d2_e2_e2 | 
[V:3] z8 | 
[V:4] z8 | 
[V:1] d2Bcd4 | 
[V:2] d4z4 | 
[V:3] z2d2Bcd2- | 
[V:4] z4D,2B,,C, | 
[V:1] z8 | 
[V:2] z8 | 
[V:3] d2_e3ddc | 
[V:4] D,2G,3F,_E,E, | 
[V:1] d4d2d2- | 
[V:2] f4f2f2- | 
[V:3] d8 | 
[V:4] D,8 | 
[V:1] d2d2d3c/B/ | 
[V:2] f2f2g2g2 | 
[V:3] z8 | 
[V:4] z8 | 
[V:1] A8 | 
[V:2] f8 | 
[V:3] z4z2A2 | 
[V:4] z2D,2F,2F,2 | 
[V:1] z2A2A2A2 | 
[V:2] z2c2f2f2 | 
[V:3] c2c2c2c2 | 
[V:4] F,2F,2F,2F,2 | 
[V:1] c3BA2G2 | 
[V:2] e3ee2e2 | 
[V:3] c4c4 | 
[V:4] C,8 | 
[V:1] F2F2G2A2 | 
[V:2] d2d2c2e2 | 
[V:3] A2A2c3B | 
[V:4] z2D,2E,2C,2 | 
[V:1] AG2^FG4- | 
[V:2] d2d2d4 | 
[V:3] A2A2G4- | 
[V:4] D,2D,2G,,4 | 
[V:1] G8- | 
[V:2] z2B2B3c | 
[V:3] G4z4 | 
[V:4] z4z2G,,2 | 
[V:1] G4z4 | 
[V:2] d2B2d4 | 
[V:3] z4z2G2 | 
[V:4] G,,3A,,B,,2G,,2 | 
[V:1] z4z2G2 | 
[V:2] _e4z4 | 
[V:3] G3AB2G2 | 
[V:4] C,4z4 | 
[V:1] G3AB2G2 | 
[V:2] z2_e2_e3f | 
[V:3] c4z4 | 
[V:4] z4z2C,2 | 
[V:1] c4z4 | 
[V:2] g2c2g4- | 
[V:3] z2G2G3A | 
[V:4] C,3D,_E,2C,2 | 
[V:1] z2G2G3A | 
[V:2] g8- | 
[V:3] B2G2d4- | 
[V:4] G,8- | 
[V:1] B2G2c4- | 
[V:2] g4z2e2- | 
[V:3] d4c4- | 
[V:4] G,4z4 | 
[V:1] c4z4 | 
[V:2] efg2e2g2- | 
[V:3] c4z2G2- | 
[V:4] z2C,3D,E,2 | 
[V:1] z2G3AB2 | 
[V:2] gfedg4 | 
[V:3] GAB2G4 | 
[V:4] C,2G,3F,E,D, | 
[V:1] G2c2cBAG | 
[V:2] e8 | 
[V:3] c4c3B | 
[V:4] C,8 | 
[V:1] F4z2F2 | 
[V:2] z2d4d2 | 
[V:3] AGF4B2 | 
[V:4] D,4z2D,2 | 
[V:1] B2A4G2 | 
[V:2] f2f2d4- | 
[V:3] d2c2B4 | 
[V:4] B,,2F,2G,4 | 
[V:1] G2^F2G4 | 
[V:2] d4d4 | 
[V:3] A4G4- | 
[V:4] D,4G,,4 | 
[V:1] z4z4 | 
[V:2] g2g2g2g2 | 
[V:3] G4z4 | 
[V:4] z4G,2G,2 | 
[V:1] d2d2d2d2 | 
[V:2] g2g2g2g2 | 
[V:3] z4d2d2 | 
[V:4] G,2G,2G,2G,2 | 
[V:1] d2d2d2d2 | 
[V:2] g4d4 | 
[V:3] d2d2d2d2 | 
[V:4] G,2G,2G,4 | 
[V:1] d4A2A2 | 
[V:2] z2d2f4 | 
[V:3] d2d2d4 | 
[V:4] D,8 | 
[V:1] c3dB2A2 | 
[V:2] e4d2c2 | 
[V:3] A4z4 | 
[V:4] z8 | 
[V:1] G4F2F2 | 
[V:2] B4A2A2 | 
[V:3] z4z2d2 | 
[V:4] z4z2D,2 | 
[V:1] G2G2F2A2- | 
[V:2] G2G2A2f2 | 
[V:3] c2c2d4 | 
[V:4] _E,2E,2D,4 | 
[V:1] ABcBAGG2- | 
[V:2] g2_e4c2 | 
[V:3] _e2c3BAG | 
[V:4] C,4_E,4 | 
[V:1] G2^F2G4 ||  
[V:2] d4d4 ||  
[V:3] A4G4 ||  
[V:4] D,4G,,4 ||  
[V:1]  [K:F] [K:clef=treble][M:2/1]z8 | 
[V:2]  [K:F] [K:clef=treble-8][M:2/1]g4g2g2 | 
[V:3]  [K:F] [K:clef=treble-8][M:2/1]z8 | 
[V:4]  [K:F] [K:clef=bass][M:2/1]z4G,4 | 
[V:1] d4d2d2 | 
[V:2] g3f/e/d4 | 
[V:3] z4d4 | 
[V:4] G,2G,2G,3F,/E,/ | 
[V:1] d3c/B/A4 | 
[V:2] z2d2f2f2 | 
[V:3] d2d2d3c/B/ | 
[V:4] D,4z2D,2 | 
[V:1] z2A2c2c2 | 
[V:2] f3e/d/c2c2 | 
[V:3] A4z2A2 | 
[V:4] F,2F,2F,3E,/D,/ | 
[V:1] c3B/A/G2G2 | 
[V:2] _e2_e2_e3d/c/ | 
[V:3] c2c2c3B/A/ | 
[V:4] C,2C,2_E,2E,2 | 
[V:1] B2B2B3A/G/ | 
[V:2] B8 | 
[V:3] G2G2B2B2 | 
[V:4] _E,3D,/C,/B,,3C, | 
[V:1] F2G4^F2 | 
[V:2] z8 | 
[V:3] B4A4 | 
[V:4] D,8 | 
[V:1] G8- | 
[V:2] z8 | 
[V:3] G8 | 
[V:4] z4G,,2G,,2 | 
[V:1] G8 | 
[V:2] z8 | 
[V:3] z4G2G2 | 
[V:4] B,,2B,,2C,2C,2 | 
[V:1] z8 | 
[V:2] z8 | 
[V:3] B2B2c2c2 | 
[V:4] D,4_E,4 | 
[V:1] z8 | 
[V:2] z8 | 
[V:3] d2B2Bcd2- | 
[V:4] z2D,4B,,C, | 
[V:1] z8 | 
[V:2] z8 | 
[V:3] d2_e3ddc | 
[V:4] D,2G,3F,_E,E, | 
[V:1] z2d2d2d2 | 
[V:2] z2f2f2f2 | 
[V:3] d8 | 
[V:4] D,8 | 
[V:1] c3BA2G2 | 
[V:2] e3dc2B2 | 
[V:3] z8 | 
[V:4] z8 | 
[V:1] F2F2G2G2 | 
[V:2] A2A2G2G2 | 
[V:3] z2d2c2c2 | 
[V:4] z2D,2_E,2E,2 | 
[V:1] F2F2G2G2 | 
[V:2] A2A2G2G2 | 
[V:3] d2d2c2c2 | 
[V:4] D,2D,2_E,2E,2 | 
[V:1] F2F2A2B2 | 
[V:2] A4f4 | 
[V:3] d2c2d4 | 
[V:4] D,2F,4D,2 | 
[V:1] c3BAGA2- | 
[V:2] g3fedf2- | 
[V:3] _e3dcBc2- | 
[V:4] C,4C,2F,2- | 
[V:1] A2G4^F2 | 
[V:2] fedcd4 | 
[V:3] cBAGA4 | 
[V:4] F,G,_E,2D,4 | 
[V:1] G4d2d2 | 
[V:2] g2g2g2d2 | 
[V:3] G4z2d2 | 
[V:4] z2G,2G,2G,2 | 
[V:1] d2A2c3B | 
[V:2] f4f4 | 
[V:3] d2d2A2c2- | 
[V:4] D,2F,4F,2 | 
[V:1] AGG4^F2 | 
[V:2] d4d4 | 
[V:3] c2B2A2A2 | 
[V:4] G,4D,4 | 
[V:1] G8 | 
[V:2] B4G2G2 | 
[V:3] G8 | 
[V:4] G,,8 | 
[V:1] z4G2G2 | 
[V:2] B2B2c2c2 | 
[V:3] z8 | 
[V:4] z8 | 
[V:1] B2B2c2c2 | 
[V:2] d4_e4 | 
[V:3] z8 | 
[V:4] z8 | 
[V:1] d2Bcd2Bc | 
[V:2] z2d2Bcd2- | 
[V:3] z8 | 
[V:4] z8 | 
[V:1] d2_e3ddc | 
[V:2] d2g3f_e_e | 
[V:3] z8 | 
[V:4] z8 | 
[V:1] d2d2d2d2 | 
[V:2] d2g2g2g2 | 
[V:3] z2d2d2d2 | 
[V:4] z2G,2G,2G,2 | 
[V:1] c3BAGB2- | 
[V:2] e2e2fedc | 
[V:3] A2c3cB2 | 
[V:4] A,2A,2F,2G,2- | 
[V:1] BAGFG4 | 
[V:2] B2A2G4 | 
[V:3] d2d4c2 | 
[V:4] G,F,E,D,E,4 | 
[V:1] F8 | 
[V:2] A8 | 
[V:3] d2d2d2d2 | 
[V:4] z2D,2D,2D,2 | 
[V:1] z8 | 
[V:2] z8 | 
[V:3] c3BA2G2 | 
[V:4] _E,3D,C,2B,,2 | 
[V:1] z2c2c3B | 
[V:2] z2c2c3c | 
[V:3] F4E4 | 
[V:4] A,,8 | 
[V:1] A2G2F2F2 | 
[V:2] c2B2A2f2 | 
[V:3] z4d2d2 | 
[V:4] z4D,2D,2 | 
[V:1] G2A3GG^F | 
[V:2] e2f3ed2 | 
[V:3] B2c2B2A2 | 
[V:4] G,2F,2G,2D,2 | 
[V:1] G8 | 
[V:2] d2B2z4 | 
[V:3] G8 | 
[V:4] G,,4G,,2G,,2 | 
[V:1] z8 | 
[V:2] G3AB2G2 | 
[V:3] z4G2G2 | 
[V:4] G,,2G,,2G,,3A,, | 
[V:1] z4G2G2 | 
[V:2] d2d2_e2_e2 | 
[V:3] G2G2G3A | 
[V:4] B,,2G,,2C,4 | 
[V:1] G2G2G3A | 
[V:2] d4z4 | 
[V:3] B2G2c4 | 
[V:4] z8 | 
[V:1] B2G2c4- | 
[V:2] _e2_e2_e2_e2 | 
[V:3] z8 | 
[V:4] z4C,2C,2 | 
[V:1] c4z4 | 
[V:2] c3d_e2c2 | 
[V:3] G2G2G2G2 | 
[V:4] C,2C,2C,3D, | 
[V:1] G2G2G2G2 | 
[V:2] g8- | 
[V:3] G3AB2G2 | 
[V:4] _E,2C,2G,4- | 
[V:1] G3AB2G2 | 
[V:2] g8 | 
[V:3] d8 | 
[V:4] G,8 | 
[V:1] c4z2G2 | 
[V:2] z2e2e3f | 
[V:3] c8 | 
[V:4] z2C,2C,3D, | 
[V:1] G3AB2G2 | 
[V:2] g2e2d4 | 
[V:3] z2G2G2B2 | 
[V:4] E,2C,2G,4 | 
[V:1] c3BAGA2- | 
[V:2] z2e4c2 | 
[V:3] A2G2c4 | 
[V:4] C,3D,E,2F,2- | 
[V:1] A2G4^F2 | 
[V:2] f2e2d4 | 
[V:3] ABc2A4 | 
[V:4] F,E,C,2D,4 | 
[V:1] G8 | 
[V:2] d8 | 
[V:3] G8 | 
[V:4] G,,8 | 
[V:1] [M:3/1]z12 | 
[V:2] [M:3/1]G4G4G4 | 
[V:3] [M:3/1]z12 | 
[V:4] [M:3/1]z12 | 
[V:1] [M:3/1]G4G4G4 | 
[V:2] B8c4 | 
[V:3] z12 | 
[V:4] z12 | 
[V:1] B8c4 | 
[V:2] d4_e8 | 
[V:3] z12 | 
[V:4] z12 | 
[V:1] d4_e6d2 | 
[V:2] d4g6f2 | 
[V:3] z12 | 
[V:4] z12 | 
[V:1] d8c4 | 
[V:2] _e2d2_e8 | 
[V:3] z12 | 
[V:4] z12 | 
[V:1] d12 | 
[V:2] d12 | 
[V:3] z12 | 
[V:4] G,,4G,,4G,,4 | 
[V:1] z12 | 
[V:2] z12 | 
[V:3] G4G4G4 | 
[V:4] B,,8C,4 | 
[V:1] z12 | 
[V:2] z12 | 
[V:3] B8c4 | 
[V:4] D,4_E,6D,2 | 
[V:1] z12 | 
[V:2] z12 | 
[V:3] d4_e6d2 | 
[V:4] D,4G,6F,2 | 
[V:1] z12 | 
[V:2] z12 | 
[V:3] d8c4 | 
[V:4] _E,2D,2E,8 | 
[V:1] d4d4d4 | 
[V:2] f8f4 | 
[V:3] d8z4 | 
[V:4] D,8z4 | 
[V:1] d8c2B2 | 
[V:2] g6f2d4 | 
[V:3] d4d4d4- | 
[V:4] G,4G,4G,4 | 
[V:1] A8z4 | 
[V:2] f4f4f4 | 
[V:3] d4c8 | 
[V:4] F,8E,2D,2 | 
[V:1] c4c4c4 | 
[V:2] g8g4- | 
[V:3] e4e4e4 | 
[V:4] C,8z4 | 
[V:1] B8A2G2 | 
[V:2] g4d8 | 
[V:3] d4B6A2 | 
[V:4] G,4G,4G,4 | 
[V:1] F2G2A2B2G4 | 
[V:2] d4d4c4 | 
[V:3] A4A2G4G2 | 
[V:4] D,2E,2F,2G,2E,2E,2 | 
[V:1] F12 | 
[V:2] d12 | 
[V:3] A12- | 
[V:4] D,8z4 | 
[V:1] z12 | 
[V:2] z12 | 
[V:3] A12 | 
[V:4] D,6E,2F,4 | 
[V:1] z12 | 
[V:2] d6e2f4 | 
[V:3] z12 | 
[V:4] D,4G,4A,4 | 
[V:1] z12 | 
[V:2] d4g6e2 | 
[V:3] G6A2B4 | 
[V:4] B,4G,8 | 
[V:1] G6A2B4 | 
[V:2] e8z4 | 
[V:3] G4c4z4 | 
[V:4] C,8z4 | 
[V:1] G4c8 | 
[V:2] e8e4 | 
[V:3] c8A4- | 
[V:4] C,8C,4 | 
[V:1] A6B2c4 | 
[V:2] f6e2c4 | 
[V:3] A2B2c4A4 | 
[V:4] F,6G,2A,4 | 
[V:1] A4d4G4- | 
[V:2] f4d4g4- | 
[V:3] d4G6A2 | 
[V:4] F,4G,4E,4- | 
[V:1] G2A2B4G4 | 
[V:2] g4g4e4 | 
[V:3] B4G4c4 | 
[V:4] E,2F,2G,4C,4- | 
[V:1] c6B2A2G2 | 
[V:2] c4g8 | 
[V:3] _e6d2c2B2 | 
[V:4] C,4_E,6D,2 | 
[V:1] B6A4G2 | 
[V:2] f4f6e2 | 
[V:3] d8c4 | 
[V:4] B,,4B,,2F,4C,2 | 
[V:1] G8^F4 | 
[V:2] e2d2d8 | 
[V:3] B4A8 | 
[V:4] G,4D,8 | 
[V:1] G12 |]  
[V:2] d12 |]  
[V:3] G12 |]  
[V:4] G,,12 |]  



